!!!COM: Haydn, Franz Joseph
!!!OTL: String Quartet in E-flat Major
!!!OPS: Opus 17
!!!ONM: No. 3
!!!OMD: Andante grazioso
!!!OMV: 1
!!!SCT: H III:27
!!!SCA: Thematisch-bibliographisches Werkevererzeichnis (A. van Hoboken)
!!!YOR: Trautwein Edition
!!!ENC: Frances Bennion
!!!CDT: 1732/3/31/-1809/5/31/
!!!CNT: Oesterreich
!!!YEC: Copyright (c) 1994, 2000 Center for Computer Assisted Research in the Humanities
!!!YEM: Rights to all derivative editions reserved.
!!!YEM: Refer to licensing agreement for further details.
!!!YEN: United States of America
**kern	**kern	**kern	**kern
*k[b-e-a-]	*k[b-e-a-]	*k[b-e-a-]	*k[b-e-a-]
*E-:	*E-:	*E-:	*E-:
*clefF4	*clefC3	*clefG	*clefG
*M2/4	*M2/4	*M2/4	*M2/4
4.r	4.r	4.r	4.r
8r	8r	8r	8b-
=1	=1	=1	=1
8E-	8e-	8B- 8g	8ee-
8r	8r	8r	8b-
8D	8f	8a- 8B-	8.b-
8r	8r	8r	.
.	.	.	32cc
.	.	.	32b-
=2	=2	=2	=2
4E-	4e-	4B- 4g	8g
.	.	.	16f
.	.	.	16e-
8r	8r	8r	8d
8A-	8B-	8d	16c
.	.	.	16B-
=3	=3	=3	=3
4G	4B-	4e-	8e-
.	.	.	8gg
8r	8r	8r	8ee-
8E-	8g	[8e-	16dd
.	.	.	16cc
=4	=4	=4	=4
8F	8c	8e-]	4a-
8BB-	8d	8d	.
8E-	8e-	8e-	8g
8r	8r	8r	8b-
=5	=5	=5	=5
4E-	4e-	4b-	8gg
.	.	.	8b-
8r	8r	8r	8.bb-
8E-	16g	8b-	.
.	16e-	.	32aa
.	.	.	32gg
=6	=6	=6	=6
4D	4b-	4b-	8ff
.	.	.	8b-
8r	8r	8r	8.bb-
8D	16f	8B-	.
.	16d	.	16ff#
=7	=7	=7	=7
4E-	8e-	8.B-	16.gg
.	.	.	32dd
.	8G	.	16.ee-
.	.	16c	.
.	.	.	32cc
8F	8F	8d	8b-
8F	8A	16e-	16cc
.	.	16d	16b-
=8	=8	=8	=8
8BB-	4B-	4d	4b-
8B-	.	.	.
8BB-	4r	4r	8r
8r	.	.	8B-
=9	=9	=9	=9
8r	8r	8r	8.b-
8BB-	8B-	8d-	.
.	.	.	32a-
.	.	.	32g
8C	8A-	8c	8f
8BB-	8G	8c	8e
=10	=10	=10	=10
8AA-	8F	[2c	8f
4FF	4c	.	8a-
.	.	.	8g
8EE	8G	.	8b-
=11	=11	=11	=11
4FF	4.A-	8c]	16a-
.	.	.	16f
.	.	8B-	8cc
8AA-	.	8c	8a-
8AA	8A	8c	16g
.	.	.	16f
=12	=12	=12	=12
8BB-	4.F	4B-	4e-
8B-	.	.	.
8B-	.	[4b-	8d
8BB-	8d	.	8b-
=13	=13	=13	=13
8BB-	4e-	8b-]	[6..cc
8BB-	.	8g	.
8BB-	4f	[4a-	.
.	.	.	48cc]
.	.	.	16ff
8BB-	.	.	16ff
.	.	.	16ff
=14	=14	=14	=14
8BB-	4d	8a-]	16ff
.	.	.	16b-
8BB-	.	8f	8.b-
8BB-	4e-	[4g	.
.	.	.	16ee-
8BB-	.	.	16ee-
.	.	.	16ee-
=15	=15	=15	=15
8BB-	4c	8g]	16ee-
.	.	.	16a-
8BB-	.	8e-	4a-
8BB-	4d	4f	.
8BB-	.	.	16cc
.	.	.	32b-
.	.	.	32a-
=16	=16	=16	=16
4E-	4e-	8e-	8g
.	.	8f	8a-
4r	4r	8g	8b-
.	.	8a-	8cc
=17	=17	=17	=17
8r	8r	8b-	8dd-
8GG	8e-	8b-	8dd-
8GG	8e-	8b-	8dd-
8GG	8e-	8b-	8dd-
=18	=18	=18	=18
2GG	2e-	8b-	4dd-
.	.	4e-	.
.	.	.	4b
.	.	[8e-	.
=19	=19	=19	=19
4AA-	8.e-	8e-]	16cc
.	.	.	32dd
.	.	.	32ee-
.	.	4e-	16cc
.	16c	.	32b-
.	.	.	32a-
8BB-	8B-	.	8g
8BB-	8A-	8d	8f
=20	=20	=20	=20
8E-	4G	4e-	4e-
8BB-	.	.	.
8EE-	4r	4r	8r
8r	.	.	8b-
=21	=21	=21	=21
8E-	8e-	8g 8B-	24ee-
.	.	.	24gg
.	.	.	24ff
8r	8r	8r	24ee-
.	.	.	24dd
.	.	.	24cc
8D	8f	8a- 8B-	24b-
.	.	.	24a
.	.	.	24b-
8r	8r	8r	24cc
.	.	.	24b-
.	.	.	24a-
=22	=22	=22	=22
4E-	4e-	4B- 4g	24g
.	.	.	24b-
.	.	.	24a-
.	.	.	24g
.	.	.	24f
.	.	.	24e-
8r	8r	8r	24d
.	.	.	24f
.	.	.	24e-
8A-	8F 8B-	8d	24d
.	.	.	24c
.	.	.	24B-
=23	=23	=23	=23
4G	4E- 4B-	4e-	24e-
.	.	.	24g
.	.	.	24b-
.	.	.	24dd
.	.	.	24ee-
.	.	.	24b-
8r	8r	8r	24gg
.	.	.	24dd
.	.	.	24ee-
8E-	8g	[8e-	24gg
.	.	.	24g
.	.	.	24cc
=24	=24	=24	=24
8F	8c	8e-]	4a-
8BB-	8d	8d	.
8E-	8e-	8e-	8g
8r	8r	8r	8b-
=25	=25	=25	=25
4E-	4e-	4b-	24gg
.	.	.	24ff#
.	.	.	24gg
.	.	.	24bb-
.	.	.	24gg
.	.	.	24ee-
8r	8r	8r	24b-
.	.	.	24g
.	.	.	24e-
8E-	8g	8b-	24bb-
.	.	.	24aa
.	.	.	24gg
=26	=26	=26	=26
4D	4f	4b-	24ff
.	.	.	24ddd
.	.	.	24ccc
.	.	.	24bb-
.	.	.	24fff
.	.	.	24eee-
8r	8r	8r	24ddd
.	.	.	24ccc
.	.	.	24bb-
8D	8f	8b-	24aa-
.	.	.	24gg
.	.	.	24ff
=27	=27	=27	=27
4E-	4e-	24b-	24gg
.	.	24gg	24bb-
.	.	24ff	24aa
.	.	24ee-	24gg
.	.	24dd	24ff
.	.	24cc	24ee-
8F	8f	8b-	8dd
8F	8e-	8a	8cc
=28	=28	=28	=28
8BB-	4d	4b-	4b-
8B-	.	.	.
8BB-	4r	4r	8r
8r	.	.	8b-
=29	=29	=29	=29
8r	8r	8r	24gg
.	.	.	24bb-
.	.	.	24aa-
8B-	8g	8d-	24gg
.	.	.	24ddd-
.	.	.	24ccc
8B-	8g	8d-	24bb-
.	.	.	24aa-
.	.	.	24gg
8B-	8g	8d-	24ff
.	.	.	24ee
.	.	.	24gg
=30	=30	=30	=30
8A-	8a-	8c	24ff
.	.	.	24cc
.	.	.	24cc
8r	8r	8r	24cc
.	.	.	24cc
.	.	.	24cc
8E	8c	8g	24cc
.	.	.	24b-
.	.	.	24cc
8r	8r	8r	24dd-
.	.	.	24cc
.	.	.	24b-
=31	=31	=31	=31
8F	8c	8a-	24a-
.	.	.	24e
.	.	.	24f
4r	4r	4r	24A-
.	.	.	24c
.	.	.	24f
.	.	.	24a-
.	.	.	24cc
.	.	.	24b-
8AA-	8F	8c	24a-
.	.	.	24g
.	.	.	24f
=32	=32	=32	=32
8BB-	4.F	4B-	4e-
8B-	.	.	.
8BB-	.	[4b-	8d
8BB-	8d	.	8b-
=33	=33	=33	=33
8BB-	8e-	4b-]	24cc
.	.	.	24dd
.	.	.	24b
8BB-	8g	.	24cc
.	.	.	24dd
.	.	.	24b
8BB-	4f	[4a-	24cc
.	.	.	24ee
.	.	.	24ff
8BB-	.	.	24aa-
.	.	.	24ee
.	.	.	24ff
=34	=34	=34	=34
8BB-	8d	4a-]	24b-
.	.	.	24cc
.	.	.	24a
8BB-	8f	.	24b-
.	.	.	24cc
.	.	.	24a
8BB-	4e-	[4g	24b-
.	.	.	24dd
.	.	.	24ee-
8BB-	.	.	24gg
.	.	.	24dd
.	.	.	24ee-
=35	=35	=35	=35
8BB-	8c	4g]	24a-
.	.	.	24b-
.	.	.	24g
8BB-	8e-	.	24a-
.	.	.	24b-
.	.	.	24g
8BB-	4d	4f	24a-
.	.	.	24aa-
.	.	.	24ff
8BB-	.	.	24dd
.	.	.	24b-
.	.	.	24a-
=36	=36	=36	=36
4E-	4e-	8e-	24g
.	.	.	24ee-
.	.	.	24ee-
.	.	8f	24a-
.	.	.	24ee-
.	.	.	24ee-
4r	4r	8g	24b-
.	.	.	24ee-
.	.	.	24ee-
.	.	8a-	24cc
.	.	.	24ee-
.	.	.	24ee-
=37	=37	=37	=37
8r	8r	8b-	24ee-
.	.	.	24dd-
.	.	.	24ddd-
8GG	8B-	8e-	24bb-
.	.	.	24gg
.	.	.	24ee-
8GG	8B-	8e-	24dd-
.	.	.	24b-
.	.	.	24g
8GG	8B-	8e-	24e-
.	.	.	24d-
.	.	.	24b-
=38	=38	=38	=38
2GG	4B-	[2e-	4d-
.	4e-	.	8.G 8.dd- 8.e-
.	.	.	16b
=39	=39	=39	=39
4AA-	8e-	8e-]	16cc
.	.	.	32dd
.	.	.	32ee-
.	8A-	4e-	16cc
.	.	.	32b-
.	.	.	32a-
8BB-	8B-	.	8g
8BB-	8A-	8d	8f
=40	=40	=40	=40
8E-	4G	4e-	4e-
8BB-	.	.	.
8EE-	4r	4r	8r
8r	.	.	8b-
=41	=41	=41	=41
8E-	16r	16r	8ee-
.	48e-	48g	.
.	48f	48a-	.
.	48e-	48g	.
8r	16g	16b-	8bb-
.	16e-	16g	.
8D	16r	16r	8bb-
.	48f	48a-	.
.	48g	48b-	.
.	48f	48a-	.
8r	16a-	16ff	8bb-
.	16f	16a-	.
=42	=42	=42	=42
8E-	16r	16r	16bb-
.	48e-	48g	16eee-
.	48f	48a-	.
.	48e-	48g	.
8r	16g	16b-	8.bb-
.	16e-	16g	.
8A-	16r	16r	.
.	48d	48f	16bb-
.	48e-	48g	.
.	48d	48f	.
8r	16b-	16dd	16bb-
.	16d	16f	16bb-
=43	=43	=43	=43
8G	16r	16r	16bb-
.	48e-	48g	16eee-
.	48f	48a-	.
.	48e-	48g	.
8r	16g	16b-	16bb-
.	16e-	16g	16bb-
8E-	16r	16r	16bb-
.	48e-	48g	16ggg
.	48f	48a-	.
.	48e-	48g	.
8r	16g	16b-	16eee-
.	16e-	16g	32ddd
.	.	.	32ccc
=44	=44	=44	=44
8F	16r	16r	4aa-
.	16e-	16f	.
8BB-	16r	16r	.
.	16d	16f	.
8E-	16r	16r	8gg
.	48e-	48g	.
.	48f	48a-	.
.	48e-	48g	.
8r	16g	16b-	8b-
.	16e-	16g	.
=45	=45	=45	=45
8E-	16r	16r	16gg
.	48e-	48g	16bb-
.	48f	48a-	.
.	48e-	48g	.
8r	16g	16b-	16bb-
.	16e-	16g	16bb-
8E-	16r	16r	8.bb-
.	48e-	48g	.
.	48f	48a-	.
.	48e-	48g	.
8r	16ee-	16gg	.
.	16e-	16g	32aa
.	.	.	32bb-
=46	=46	=46	=46
8B-	16r	16r	16ff
.	48d	48f	16bb-
.	48e-	48g	.
.	48d	48f	.
8r	16B-	16dd	16bb-
.	16d	16f	16bb-
8B-	16r	16r	8.bb-
.	48d	48f	.
.	48e-	48g	.
.	48d	48f	.
8r	16dd	16ff	.
.	16d	16f	32aa
.	.	.	32bb-
=47	=47	=47	=47
8E-	16r	16r	16gg
.	48e-	48g	16ee-
.	48f	48a-	.
.	48e-	48g	.
8r	16g	16cc	16eee-
.	16e-	16ee-	16ccc
8F	16r	16r	8bb-
.	16f	16dd	.
8F	16r	16r	8aa
.	16e-	16cc	.
=48	=48	=48	=48
8BB-	16r	16r	4bb-
.	48d	48b-	.
.	48e-	48cc	.
.	48d	48b-	.
4.r	16f	16dd	.
.	16d	16b-	.
.	8b-	8B-	8r
.	8r	8r	8b-
=49	=49	=49	=49
8BB-	16r	16r	[12..bb-
.	48f	48d-	.
.	48g	48e-	.
.	48f	48d-	.
8r	16d-	16b-	.
.	.	.	96bb-]
.	.	.	32aa-
.	16f	16d-	32gg
.	.	.	32ff
8BB-	16r	16r	8ee
.	16g	48c	.
.	.	48d-	.
.	.	48c	.
8r	16c	16e	8gg
.	16e	16c	.
=50	=50	=50	=50
8AA-	16r	16r	8ff
.	16f	16cc	.
8FF	16r	16r	8aa-
.	16f	16cc	.
8EE	16r	16r	8gg
.	16g	16cc	.
8CC	16r	16r	8bb-
.	16e	16cc	.
=51	=51	=51	=51
8FF	16r	16r	16aa-
.	48a-	48cc	16ff
.	48b-	48dd-	.
.	48a-	48cc	.
8r	16f	16a-	8ccc
.	16a-	16cc	.
8AA-	16r	16r	8aa-
.	16f	16cc	.
8AA	16r	16r	16gg
.	16f	16cc	16ff
=52	=52	=52	=52
8BB-	16r	16r	4ee-
.	48f	48f	.
.	48g	48g	.
.	48f	48f	.
8r	16cc	16ee-	.
.	16f	16f	.
8BB-	16r	16r	8dd
.	48d	48f	.
.	48e-	48g	.
.	48d	48f	.
8r	16f	16dd	8bb-
.	16d	16f	.
=53	=53	=53	=53
8BB-	16r	16r	[6..ccc
.	48e-	48g	.
.	48f	48a-	.
.	48e-	48g	.
8r	16g	16b-	.
.	16e-	16g	.
8BB-	16r	16r	.
.	.	.	48ccc]
.	48f	48a-	16ff
.	48g	48b-	.
.	48f	48a-	.
8r	16a-	16cc	16ff
.	16f	16a-	16ff
=54	=54	=54	=54
8BB-	16r	16r	16ff
.	48d	48f	16bb-
.	48e-	48g	.
.	48d	48f	.
8r	16f	16a-	8.bb-
.	16d	16f	.
8BB-	16r	16r	.
.	48e-	48g	16ee-
.	48f	48a-	.
.	48e-	48g	.
8r	16g	16b-	16ee-
.	16e-	16g	16ee-
=55	=55	=55	=55
8BB-	16r	16r	16ee-
.	48c	48e-	16aa-
.	48d	48f	.
.	48c	48e-	.
8r	16e-	16g	8.aa-
.	16c	16e-	.
8BB-	16r	16r	.
.	48d	48f	16a-
.	48e-	48g	.
.	48d	48f	.
8r	16f	16a-	16a-
.	16d	16f	16a-
=56	=56	=56	=56
8E-	16r	16r	8g
.	16e-	16e-	.
8E-	16r	16r	8a-
.	16e-	16f	.
8E-	16r	16r	8b-
.	16e-	16g	.
8E-	16r	16r	8cc
.	16e-	16a-	.
=57	=57	=57	=57
8E-	16r	16r	8dd-
.	48g	48b-	.
.	48a-	48cc	.
.	48g	48b-	.
8GG	16b-	16dd-	8dd-
.	16g	16b-	.
8GG	16r	16r	8dd-
.	48g	48b-	.
.	48a-	48cc	.
.	48g	48b-	.
8GG	16b-	16dd-	8dd-
.	16g	16b-	.
=58	=58	=58	=58
2GG	16r	16r	2dd-
.	8e-	8b-	.
.	8e-	8b-	.
.	8e-	8b-	.
.	16e-	16b-	.
=59	=59	=59	=59
8AA-	16r	16r	16cc
.	16a-	48f	32dd
.	.	48g	.
.	.	.	32ee-
.	.	48f	.
8r	16A-	16a-	16cc
.	16c	16f	32b-
.	.	.	32a-
8BB-	16r	16r	8g
.	16B-	16e-	.
8BB-	16r	16r	8f
.	16A-	16d	.
=60	=60	=60	=60
8E-	16r	16r	4e-
.	48G	48e-	.
.	48A-	48f	.
.	48G	48e-	.
8BB-	16B-	16g	.
.	16G	16e-	.
8EE-	8E-	8ee-	8r
8r	8r	8r	8b-
=61	=61	=61	=61
8E-	8e-	8g	32ee-
.	.	.	32dd
.	.	.	32cc
.	.	.	32b-
8r	8r	8r	32a-
.	.	.	32g
.	.	.	32f
.	.	.	32e-
8BB-	8f	8a-	32d
.	.	.	32e-
.	.	.	32f
.	.	.	32e-
8r	8r	8r	32d
.	.	.	32c
.	.	.	32B-
.	.	.	32A-
=62	=62	=62	=62
8E-	8e-	8g	32G
.	.	.	32e-
.	.	.	32b-
.	.	.	32cc
8r	8r	8r	32b-
.	.	.	32g
.	.	.	32f
.	.	.	32e-
8BB-	8A-	8f	32d
.	.	.	32e-
.	.	.	32f
.	.	.	32e-
8r	8r	8r	32d
.	.	.	32c
.	.	.	32B-
.	.	.	32A-
=63	=63	=63	=63
4E-	4G	4e-	32G
.	.	.	32e-
.	.	.	32d
.	.	.	32e-
.	.	.	32g
.	.	.	32e-
.	.	.	32b-
.	.	.	32g
8r	8r	8r	32ee-
.	.	.	32b-
.	.	.	32gg
.	.	.	32ff
8E-	8g	[8e-	32ee-
.	.	.	32dd
.	.	.	32cc
.	.	.	32b-
=64	=64	=64	=64
8F	8c	8e-]	4a-
8BB-	8d	8d	.
8E-	8e-	8e-	8g
8r	8r	8r	8b-
=65	=65	=65	=65
4E-	4B-	4g	32ee-
.	.	.	32dd
.	.	.	32cc
.	.	.	32b-
.	.	.	32a-
.	.	.	32g
.	.	.	32f
.	.	.	32e-
8r	8r	8r	8.bb-
8E-	8e-	8g	.
.	.	.	16gg
=66	=66	=66	=66
4D	4f	4b-	32ff
.	.	.	32dd
.	.	.	32cc
.	.	.	32b-
.	.	.	32a
.	.	.	32g
.	.	.	32f
.	.	.	32e-
8r	8r	8r	16d
.	.	.	16aa
8D	8d	8b-	16bb-
.	.	.	16ff#
=67	=67	=67	=67
4E-	4e-	8b-	16gg
.	.	.	16b
.	.	16.g	16cc
.	.	.	16ee-
.	.	32cc	.
8F	8d	8b-	8f
8F	8e-	8a	8cc
=68	=68	=68	=68
8BB-	4d	4b-	4b-
8B-	.	.	.
8BB-	4r	4r	8r
8r	.	.	8b-
=69	=69	=69	=69
4B-	4B-	4dd-	32bb-
.	.	.	32aa-
.	.	.	32gg
.	.	.	32aa-
.	.	.	32gg
.	.	.	32ff
.	.	.	32ee
.	.	.	32ff
8r	8r	8r	16ee
.	.	.	16dd- 16ee
8c	8c	8g	16cc 16ee
.	.	.	16b- 16ee
=70	=70	=70	=70
8F	8c	8a-	32a-
.	.	.	32cc
.	.	.	32ff
.	.	.	32ff
8r	8r	8r	16.aa-
.	.	.	32f
8c	8B-	8g	32e
.	.	.	32cc
.	.	.	32gg
.	.	.	32gg
8r	8r	8r	16.bb-
.	.	.	32gg
=71	=71	=71	=71
4F	4A-	4f	32aa-
.	.	.	32ff
.	.	.	32ee
.	.	.	32ff
.	.	.	32gg
.	.	.	32ff
.	.	.	32aa-
.	.	.	32gg
8r	8r	8r	32bb-
.	.	.	32aa-
.	.	.	32ddd
.	.	.	32ccc
8F	8f	16cc	32bb-
.	.	.	32aa-
.	.	16a-	32gg
.	.	.	32ff
=72	=72	=72	=72
8B-	4.B-	4g	4ee-
8BB-	.	.	.
8B-	.	8f	16dd
.	.	.	16bb-
8BB-	8d	[8b-	16bb-
.	.	.	16bb
=73	=73	=73	=73
8BB-	4e-	8b-]	32ccc
.	.	.	32bb
.	.	.	32ccc
.	.	.	32bb
8BB-	.	32b-	8.ccc
.	.	32cc	.
.	.	32b-	.
.	.	32cc	.
8BB-	4f	[4a-	.
.	.	.	32ee
.	.	.	32ff
8BB-	.	.	32ee
.	.	.	32ff
.	.	.	32ee
.	.	.	32ff
=74	=74	=74	=74
8BB-	4d	8a-]	32bb-
.	.	.	32aa
.	.	.	32bb-
.	.	.	32aa
8BB-	.	32a-	8.bb-
.	.	32b-	.
.	.	32a-	.
.	.	32b-	.
8BB-	4e-	[4g	.
.	.	.	32dd
.	.	.	32ee-
8BB-	.	.	32dd
.	.	.	32ee-
.	.	.	32dd
.	.	.	32ee-
=75	=75	=75	=75
8BB-	4c	8g]	32aa-
.	.	.	32gg
.	.	.	32aa-
.	.	.	32gg
8BB-	.	32g	8.aa-
.	.	32a-	.
.	.	32g	.
.	.	32a-	.
8BB-	4d	4f	.
.	.	.	32g
.	.	.	32a-
8BB-	.	.	32g
.	.	.	32a-
.	.	.	32g
.	.	.	32a-
=76	=76	=76	=76
4E-	4e-	8e-	32g
.	.	.	32ee-
.	.	.	32gg
.	.	.	32ee-
.	.	8f	32a-
.	.	.	32ee-
.	.	.	32gg
.	.	.	32ee-
4r	4r	8g	32b-
.	.	.	32ee-
.	.	.	32gg
.	.	.	32ee-
.	.	8a-	32cc
.	.	.	32ee-
.	.	.	32gg
.	.	.	32ee-
=77	=77	=77	=77
8r	8r	8b-	32g
.	.	.	32ee-
.	.	.	32bb-
.	.	.	32ee-
8GG	8e-	8b-	32ddd-
.	.	.	32ee-
.	.	.	32bb-
.	.	.	32ee-
8GG	8e-	8b-	32g
.	.	.	32ee-
.	.	.	32bb-
.	.	.	32ee-
8GG	8e-	8b-	32ddd-
.	.	.	32ee-
.	.	.	32bb-
.	.	.	32ee-
=78	=78	=78	=78
2GG	2e-	4b-	8ddd- 8ee- 8g
.	.	.	4ddd-
.	.	4e-	.
.	.	.	8bb
=79	=79	=79	=79
4AA-	8e-	8e-	32ccc
.	.	.	32ddd
.	.	.	32ddd
.	.	.	32eee-
.	8A-	4e-	16ccc
.	.	.	32bb-
.	.	.	32aa-
8BB-	8B-	.	8gg
8BB-	8A-	8d	8ff
=80	=80	=80	=80
8E-	4G	4e-	4ee-
8BB-	.	.	.
8EE-	4r	4r	8r
8r	.	.	8b-
=81	=81	=81	=81
16EE-	8e-	8g 8B-	8ee-
16GG	.	.	.
16BB-	8r	8r	8b-
16E-	.	.	.
16D	8f	8a- 8B-	8.b-
16F	.	.	.
16B-	8r	8r	.
16D	.	.	32cc
.	.	.	32b-
=82	=82	=82	=82
16E-	4e-	4B- 4g	8g
16G	.	.	.
16B-	.	.	16f
16G	.	.	16e-
16F	8r	8r	8d
16A-	.	.	.
16B-	8B-	8d	16c
16A-	.	.	16B-
=83	=83	=83	=83
16G	4B-	4e-	8e-
16B-	.	.	.
16E-	.	.	8gg
16G	.	.	.
16BB-	8r	8r	8ee-
16E-	.	.	.
16GG	8g	[8e-	16dd
16E-	.	.	16cc
=84	=84	=84	=84
16FF	8c	8e-]	4a-
16F	.	.	.
16BB-	8d	8d	.
16B-	.	.	.
8EE-	8e-	8e-	8g
8r	8r	8r	8b-
=85	=85	=85	=85
16EE-	4e-	4b-	8gg
16GG	.	.	.
16BB-	.	.	8b-
16E-	.	.	.
16G	8r	8r	8.bb-
16E-	.	.	.
16EE-	16g	8b-	.
16E-	16e-	.	32aa
.	.	.	32gg
=86	=86	=86	=86
16DD	8b-	4b-	8ff
16FF	.	.	.
16BB-	4r	.	8b-
16D	.	.	.
16F	.	8r	8.bb-
16D	.	.	.
16DD	16f	8B-	.
16D	16d	.	16ff#
=87	=87	=87	=87
16EE-	8e-	8.B-	16.gg
16GG	.	.	.
.	.	.	32dd
16BB-	8G	.	16.ee-
16E-	.	16c	.
.	.	.	32cc
16F	8F	8d	8b-
16B-	.	.	.
16FF	8A	16.e-	16.cc
16A	.	.	.
.	.	32d	32b-
=88	=88	=88	=88
16BB-	4B-	4d	4b-
16D	.	.	.
16F	.	.	.
16B-	.	.	.
8BB-	4r	4r	8r
8r	.	.	8B-
=89	=89	=89	=89
16BB-	8r	8r	8.b-
16D-	.	.	.
16F	8B-	8d-	.
16B-	.	.	32a-
.	.	.	32g
16c	8A-	8c	8f
16d-	.	.	.
16c	8G	8c	8e
16B-	.	.	.
=90	=90	=90	=90
16A-	8F	[2c	8f
16c	.	.	.
16F	4c	.	8a-
16c	.	.	.
16E	.	.	8g
16G	.	.	.
16C	8c	.	8b-
16E	.	.	.
=91	=91	=91	=91
16FF	[2F	8c]	16a-
16F	.	.	16f
16E	.	8B-	8cc
16F	.	.	.
16AA-	.	8c	8a-
16F	.	.	.
16AA	.	8c	16g
16F	.	.	16f
=92	=92	=92	=92
16BB-	4F]	4.B-	4e-
16B-	.	.	.
16A	.	.	.
16B-	.	.	.
16BB-	[4B-	.	8d
16B-	.	.	.
16BB-	.	8d	8b-
16B-	.	.	.
=93	=93	=93	=93
16BB-	2B-_	4e-	[6..cc
16B-	.	.	.
16BB-	.	.	.
16B-	.	.	.
16BB-	.	4f	.
.	.	.	48cc]
16A-	.	.	16dd
16BB-	.	.	16ee-
16A-	.	.	16ff
=94	=94	=94	=94
16BB-	2B-_	4d	16ff
16A-	.	.	16b-
16BB-	.	.	8.b-
16A-	.	.	.
16BB-	.	4e-	.
16G	.	.	16cc
16BB-	.	.	16dd
16G	.	.	16ee-
=95	=95	=95	=95
16BB-	2B-]	4c	16ee-
16G	.	.	16a-
16BB-	.	.	4a-
16G	.	.	.
16BB-	.	4d	.
16F	.	.	.
16BB-	.	.	16cc
16F	.	.	32b-
.	.	.	32a-
=96	=96	=96	=96
16EE-	4e-	4e-	8g
16E-	.	.	.
16FF	.	.	8a-
16E-	.	.	.
16GG	4r	4r	8b-
16E-	.	.	.
16AA-	.	.	8cc
16E-	.	.	.
=97	=97	=97	=97
16BB-	8r	8r	8dd-
16EE-	.	.	.
16GG	8e-	8b-	8dd-
16BB-	.	.	.
16E-	8e-	8b-	8dd-
16G	.	.	.
16B-	8e-	8b-	8dd-
16d-	.	.	.
=98	=98	=98	=98
2GG	2e-	8b-	4dd-
.	.	4e-	.
.	.	.	4b
.	.	[8e-	.
=99	=99	=99	=99
4AA-	8e-	8e-]	16cc
.	.	.	32dd
.	.	.	32ee-
.	8A-	4e-	16cc
.	.	.	32b-
.	.	.	32a-
8BB-	8B-	.	8g
8BB-	8A-	8d	8f
=100	=100	=100	=100
8E-	4G	4e-	4e-
8BB-	.	.	.
8EE-	4r	4r	4r
8r	.	.	.
==	==	==	==
*-	*-	*-	*-
!!!RWG1: This file contains only pitch and duration data.
!!!RWG2: Transposing instruments are not transposed.
!!!RWG3: Spines may have incompatible meters.
!!!RWG4: Durations of rests and tied notes may be interpreted.
!!!RWG: Key is interpreted using the Humdrum key tool.
!!!GTL: 6 Divertimentos
!!!AFT: stage1
!!!END: 1997/04/15
!!!KEY: 402192444
!!!EMD: Converted from MuseData to Humdrum Dec 16, 2000, by Andreas Kornstaedt using muse2kern.
!!!EMD: Manual editing by Craig Sapp, Nov 2001
